X:1
T:Forest, LM
T:Forest, LM
T:Amzi Chapin,1823
T:Public Domain Courtesy of the Cyber Hymnal™
C:Amzi Chapin,1823
Z:Public Domain
Z:Courtesy of the Cyber Hymnal™
%%score 1 2
L:1/8
Q:1/4=140
M:3/2
K:A
V:1 treble 
V:2 bass 
V:1
 [CA]4 | [DF]2 [CE]2 [CA]4 [EA]4 | [Ec]2 [DB]2 [CA]4 [CA]4 | [Ec]2 [Ee]2 [Ec]4 [CA]4 | %4
 [EB]2 [Ec]2 [EB]4 [CA]4 | [Ec]2 [Ee]2 [Ec]4 [CA]4 | [Ec]2 [EA]2 [DF]4 [DB]4 | %7
 [EA]2 [DF]2 [CE]4 [EA]4 | [Ec]2 [DB]2 [CA]4 |] %9
V:2
 [A,,A,]4 | [A,,A,]2 [A,,A,]2 [A,,A,]4 [C,A,]4 | [E,A,]2 [E,G,]2 [A,,A,]4 [A,,E,]4 | %3
 [A,,A,]2 [A,,C]2 [A,,A,]4 [A,,E,]4 | [E,G,]2 [E,A,]2 [E,G,]4 [A,,A,]4 | %5
 [A,,A,]2 [A,,C]2 [A,,A,]4 [A,,E,]4 | [A,,A,]2 [C,A,]2 [D,A,]4 [D,F,]4 | %7
 [C,A,]2 [D,A,]2 [A,,A,]4 [C,A,]4 | [E,A,]2 [E,G,]2 [A,,A,]4 |] %9

